X: 929
T: Gül Yüzlülerin Şevkine Gel
C: Tab`î Mustafa Efendi
O: Turkey
F: http://compmusic.upf.edu/node/140
N: beyati--yuruksemai--yuruksemai--gul_yuzlulerin--tabi_mustafa_efendi
N: makam= beyati
N: form= yuruksemai
N: usul= yuruksemai = 6/8
M: 6/8
L: 1/16
K: C _2/4B   
Q: 1/4=108
%%MIDI tuningsystem comma53
c4d4 d4d2ed {e}d8  | d8 e4f4 d8  | c8 B4A4 e4{f}e2d2  | \
w:  Gül  yüz lü le *  *  *  rin   |  şev kı ne  gel   |  nûş_ e de lim   | 
d4c4 B4A4 G8  | 
w:  mey  a man  a man    | 
c4d4 d4d2ed {e}d8  | d8 e4f4 d8  | c8 B4A4 e4{f}e2d2  | \
w:  Gül  yüz lü le *  *  *  rin   |  şev kı ne  gel   |  nûş_ e de lim   | 
d8 c4B4 d8  | 
w:  mey   SAZ  | 
f4e4 f4{f}g2e2 e8  | e8 d4e4 d8  | c4{d}c2B2 {e}d2c2c2B2 B3AB2A2  | 
w:  Iyş_ ey le *  ye *  lim   |  yâr_ i le  şim  |  di  *  *  *  *  de *  mi *  dir   | 
{B}A4B4 c4d4 e6z2  | f4e4 f4{f}g2e2 e8  | \
w:  *  hey  a man  a man    |  Iyş_ ey le *  ye *  lim   | 
e8 d4e4 d8  | c4{d}c2B2 {e}d2c2c2B2 B3AB2A2  | 
w:  yâr_ i le  şim  |  di  *  *  *  *  de *  mi *  dir   | 
{B}A12g4 a8  | g4g4 a4a4 a8  | a8 c'4_1/4b4 {c'}a8  | \
w:  *  hey   SAZ  |  Bu  kav li  sü ra  |  hi  e ği *  lip   | 
g4^2/4f4 e4.^3/4f4 g4a4  | {_b}a2{b}g2f2e2 d4e4 .d8  | 
w:  sâ *  ga ra  söy  |  *  ler  *  *  *  *  *  ne  der    | 
g4g4 a4a4 a8  | a8 c'4_1/4b4 {c'}a8  | \
w:  Bu  kav li  sü ra  |  hi  e ği *  lip   | 
g4^2/4f4 e4.^3/4f4 g4a4  | {_b}a2{b}g2f2e2 d4e4 d8  | 
w:  sâ *  ga ra  söy  |  *  ler  *  *  *  *  *  ne  der    | 
f4e4 f4{f}g2e2 e8  | e8 d4e4 d8  | c4{d}c2B2 {e}d2c2c2B2 B3AB2A2  | 
w:  Düm  de  re  *  lâ  *  dir   |  nâ  te  ne  dir   |  nâ  *  *  *  *  te  *  ne  *  dir   | 
{B}A4B4 c4d4 e6z2  | f4e4 f4{f}g2e2 e8  | \
w:  *  ney  a man  a man    |  Düm  de  re  *  lâ  *  dir   | 
e8 d4e4 d8  | c4{d}c2B2 {e}d2c2c2B2 B3AB2A2  | 
w:  nâ  te  ne  dir   |  nâ  *  *  *  *  te  *  ne  *  dir   | 
{B}A12c4 d8  | c4d4 d4d2ed {e}d8  | d8 e4f4 d8  | \
w:  *  ney   SAZ  |  Gül  yüz lü le *  *  *  rin   |  şev kı ne  gel   | 
c8 B4A4 e4{f}e2d2  | d4c4 B4A4 G8  | 
w:  nûş_ e de lim   |  mey  a man  a man    | 
c4d4 d4d2ed {e}d8  | d8 e4f4 d8  | c8 B4A4 e4{f}e2d2  | \
w:  Gül  yüz lü le *  *  *  rin   |  şev kı ne  gel   |  nûş_ e de lim   | 
d8 c4B4 d8  | 
w:  mey   SAZ  | 
f4e4 f4{f}g2e2 e8  | e8 d4e4 d8  | c4{d}c2B2 {e}d2c2c2B2 B3AB2A2  | 
w:  Iyş_ ey le *  ye *  lim   |  yâr_ i le  şim  |  di  *  *  *  *  de *  mi *  dir   | 
{B}A4B4 c4d4 e6z2  | f4e4 f4{f}g2e2 e8  | \
w:  *  hey  a man  a man    |  Iyş_ ey le *  ye *  lim   | 
e8 d4e4 d8  | c4{d}c2B2 {e}d2c2c2B2 B3AB2A2  | 
w:  yâr_ i le  şim  |  di  *  *  *  *  de *  mi *  dir   | 
{B}A12g4 a8  | g4g4 a4a4 a8  | a8 c'4_1/4b4 {c'}a8  | \
w:  *  hey   SAZ  |  Bu  kav li  sü ra  |  hi  e ği *  lip   | 
g4^2/4f4 e4.^3/4f4 g4a4  | {_b}a2{b}g2f2e2 d4e4 .d8  | 
w:  sâ *  ga ra  söy  |  *  ler  *  *  *  *  *  ne  der    | 
g4g4 a4a4 a8  | a8 c'4_1/4b4 {c'}a8  | \
w:  Bu  kav li  sü ra  |  hi  e ği *  lip   | 
g4^2/4f4 e4.^3/4f4 g4a4  | {_b}a2{b}g2f2e2 d4e4 d8  | 
w:  sâ *  ga ra  söy  |  *  ler  *  *  *  *  *  ne  der    | 
f4e4 f4{f}g2e2 e8  | e8 d4e4 d8  | c4{d}c2B2 {e}d2c2c2B2 B3AB2A2  | 
w:  Düm  de  re  *  lâ  *  dir   |  nâ  te  ne  dir   |  nâ  *  *  *  *  te  *  ne  *  dir   | 
{B}A4B4 c4d4 e6z2  | f4e4 f4{f}g2e2 e8  | \
w:  *  ney  a man  a man    |  Düm  de  re  *  lâ  *  dir   | 
e8 d4e4 d8  | c4{d}c2B2 {e}d2c2c2B2 B3AB2A2  | 
w:  nâ  te  ne  dir   |  nâ  *  *  *  *  te  *  ne  *  dir   | 
{B}A12|
w:  *  ney    | 


